static/fa/svgs/regular/face-angry.svg

<svg xmlns="http://www.w3.org/2000/svg" viewBox="0 0 512 512"><!--! Font Awesome Free 6.1.1 by @fontawesome - https://fontawesome.com License - https://fontawesome.com/license/free (Icons: CC BY 4.0, Fonts: SIL OFL 1.1, Code: MIT License) Copyright 2022 Fonticons, Inc.--><path d="M328.4 393.5c-9.7 9.1-24.9 8.6-33.9-1.1-7.4-7.9-20.1-16.4-38.5-16.4s-31.1 8.5-38.5 16.4c-9 9.7-24.2 10.2-33.9 1.1-9.7-9-10.2-24.2-1.1-33.9 14.2-15.3 38.9-31.6 73.5-31.6s59.3 16.3 73.5 31.6c9.1 9.7 8.6 24.9-1.1 33.9zM144.4 240c0-8.8 3.5-16.8 9.3-22.6l-30.8-10.2c-8.3-2.8-12.9-11.9-10.1-20.3 2.8-8.3 11.9-12.9 20.3-10.1l96 32c8.3 2.8 12 11.9 10.1 20.3-2.8 8.3-11.9 12-20.3 10.1l-10.8-3.6c.2 1.4.3 2.9.3 4.4 0 17.7-14.4 32-32 32-17.7 0-32-14.3-32-32zm224 0c0 17.7-14.4 32-32 32-17.7 0-32-14.3-32-32 0-1.6.1-3.2.3-4.7l-11.6 3.9c-8.4 1.9-17.5-1.8-20.3-10.1-2.8-8.4 1.8-17.5 10.1-20.3l96-32c8.4-2.8 17.5 1.8 20.3 10.1 1.9 8.4-1.8 17.5-10.1 20.3l-30.2 10c5.8 5.8 9.5 13.9 9.5 22.8zM0 256C0 114.6 114.6 0 256 0s256 114.6 256 256-114.6 256-256 256S0 397.4 0 256zm256 208c114.9 0 208-93.1 208-208S370.9 48 256 48 48 141.1 48 256s93.1 208 208 208z"/></svg>

<svg xmlns="http://www.w3.org/2000/svg" viewBox="0 0 512 512"><!--! Font Awesome Free 6.1.1 by @fontawesome - https://fontawesome.com License - https://fontawesome.com/license/free (Icons: CC BY 4.0, Fonts: SIL OFL 1.1, Code: MIT License) Copyright 2022 Fonticons, Inc. --><path d="M328.4 393.5C318.7 402.6 303.5 402.1 294.5 392.4C287.1 384.5 274.4 376 256 376C237.6 376 224.9 384.5 217.5 392.4C208.5 402.1 193.3 402.6 183.6 393.5C173.9 384.5 173.4 369.3 182.5 359.6C196.7 344.3 221.4 328 256 328C290.6 328 315.3 344.3 329.5 359.6C338.6 369.3 338.1 384.5 328.4 393.5zM144.4 240C144.4 231.2 147.9 223.2 153.7 217.4L122.9 207.2C114.6 204.4 110 195.3 112.8 186.9C115.6 178.6 124.7 174 133.1 176.8L229.1 208.8C237.4 211.6 241.1 220.7 239.2 229.1C236.4 237.4 227.3 241.1 218.9 239.2L208.1 235.6C208.3 237 208.4 238.5 208.4 240C208.4 257.7 194 272 176.4 272C158.7 272 144.4 257.7 144.4 240V240zM368.4 240C368.4 257.7 354 272 336.4 272C318.7 272 304.4 257.7 304.4 240C304.4 238.4 304.5 236.8 304.7 235.3L293.1 239.2C284.7 241.1 275.6 237.4 272.8 229.1C270 220.7 274.6 211.6 282.9 208.8L378.9 176.8C387.3 174 396.4 178.6 399.2 186.9C401.1 195.3 397.4 204.4 389.1 207.2L358.9 217.2C364.7 223 368.4 231.1 368.4 240H368.4zM0 256C0 114.6 114.6 0 256 0C397.4 0 512 114.6 512 256C512 397.4 397.4 512 256 512C114.6 512 0 397.4 0 256zM256 464C370.9 464 464 370.9 464 256C464 141.1 370.9 48 256 48C141.1 48 48 141.1 48 256C48 370.9 141.1 464 256 464z"/></svg>
